telma/img/buttons/menu/Import.svg

<?xml version="1.0" encoding="UTF-8" standalone="no"?>
<!-- Created with Inkscape (http://www.inkscape.org/) -->
<svg
   xmlns:dc="http://purl.org/dc/elements/1.1/"
   xmlns:cc="http://creativecommons.org/ns#"
   xmlns:rdf="http://www.w3.org/1999/02/22-rdf-syntax-ns#"
   xmlns:svg="http://www.w3.org/2000/svg"
   xmlns="http://www.w3.org/2000/svg"
   xmlns:xlink="http://www.w3.org/1999/xlink"
   xmlns:sodipodi="http://sodipodi.sourceforge.net/DTD/sodipodi-0.dtd"
   xmlns:inkscape="http://www.inkscape.org/namespaces/inkscape"
   width="600"
   height="600"
   id="svg2"
   sodipodi:version="0.32"
   inkscape:version="0.46"
   version="1.0"
   sodipodi:docname="Load.svg"
   inkscape:output_extension="org.inkscape.output.svg.inkscape"
   inkscape:export-filename="P:\TELMA.V20\TELMA.V20_10_11\Projects\Interfaces\BaseInterface\CurveEditor\CurveEditorPanel\images\Load.png"
   inkscape:export-xdpi="4.9848137"
   inkscape:export-ydpi="4.9848137">
  <defs
     id="defs4">
    <linearGradient
       inkscape:collect="always"
       id="linearGradient5846">
      <stop
         style="stop-color:#ffc35d;stop-opacity:1;"
         offset="0"
         id="stop5848" />
      <stop
         style="stop-color:#ffc35d;stop-opacity:0;"
         offset="1"
         id="stop5850" />
    </linearGradient>
    <linearGradient
       inkscape:collect="always"
       id="linearGradient5838">
      <stop
         style="stop-color:#ffec69;stop-opacity:1;"
         offset="0"
         id="stop5840" />
      <stop
         style="stop-color:#ffec69;stop-opacity:0;"
         offset="1"
         id="stop5842" />
    </linearGradient>
    <linearGradient
       inkscape:collect="always"
       id="linearGradient5801">
      <stop
         style="stop-color:#ffff9b;stop-opacity:1;"
         offset="0"
         id="stop5803" />
      <stop
         style="stop-color:#ffff9b;stop-opacity:0;"
         offset="1"
         id="stop5805" />
    </linearGradient>
    <linearGradient
       id="linearGradient5736">
      <stop
         style="stop-color:#ffb657;stop-opacity:1;"
         offset="0"
         id="stop5738" />
      <stop
         style="stop-color:#ffb657;stop-opacity:0;"
         offset="1"
         id="stop5740" />
    </linearGradient>
    <linearGradient
       id="linearGradient5658">
      <stop
         style="stop-color:#adaeb1;stop-opacity:1;"
         offset="0"
         id="stop5660" />
      <stop
         style="stop-color:#adaeb1;stop-opacity:0;"
         offset="1"
         id="stop5662" />
    </linearGradient>
    <linearGradient
       id="linearGradient5580">
      <stop
         style="stop-color:#5938ff;stop-opacity:1;"
         offset="0"
         id="stop5582" />
      <stop
         style="stop-color:#5938ff;stop-opacity:0;"
         offset="1"
         id="stop5584" />
    </linearGradient>
    <linearGradient
       id="linearGradient5572">
      <stop
         style="stop-color:#ffffff;stop-opacity:1;"
         offset="0"
         id="stop5574" />
      <stop
         style="stop-color:#ffffff;stop-opacity:0;"
         offset="1"
         id="stop5576" />
    </linearGradient>
    <linearGradient
       id="linearGradient4711">
      <stop
         style="stop-color:#ffffff;stop-opacity:1;"
         offset="0"
         id="stop4713" />
      <stop
         style="stop-color:#ffffff;stop-opacity:0;"
         offset="1"
         id="stop4715" />
    </linearGradient>
    <linearGradient
       id="linearGradient3854">
      <stop
         style="stop-color:#f4eeac;stop-opacity:1;"
         offset="0"
         id="stop3856" />
      <stop
         style="stop-color:#bbb08d;stop-opacity:0;"
         offset="1"
         id="stop3858" />
    </linearGradient>
    <linearGradient
       id="linearGradient3720">
      <stop
         style="stop-color:#000000;stop-opacity:1;"
         offset="0"
         id="stop3722" />
      <stop
         style="stop-color:#000000;stop-opacity:0;"
         offset="1"
         id="stop3724" />
    </linearGradient>
    <linearGradient
       inkscape:collect="always"
       id="linearGradient3267">
      <stop
         style="stop-color:#ff0000;stop-opacity:1;"
         offset="0"
         id="stop3269" />
      <stop
         style="stop-color:#ff0000;stop-opacity:0;"
         offset="1"
         id="stop3271" />
    </linearGradient>
    <linearGradient
       id="linearGradient3253">
      <stop
         style="stop-color:#ff0000;stop-opacity:1;"
         offset="0"
         id="stop3255" />
      <stop
         style="stop-color:#ff0000;stop-opacity:0;"
         offset="1"
         id="stop3257" />
    </linearGradient>
    <linearGradient
       id="linearGradient4618">
      <stop
         style="stop-color:#29b63e;stop-opacity:0.74703556;"
         offset="0"
         id="stop4620" />
      <stop
         style="stop-color:#ffffff;stop-opacity:0;"
         offset="1"
         id="stop4622" />
    </linearGradient>
    <linearGradient
       id="linearGradient3176">
      <stop
         id="stop3178"
         offset="0"
         style="stop-color:#ff0000;stop-opacity:1;" />
      <stop
         id="stop3180"
         offset="1"
         style="stop-color:#00d63b;stop-opacity:0;" />
    </linearGradient>
    <linearGradient
       id="linearGradient3170">
      <stop
         style="stop-color:#ff0000;stop-opacity:1;"
         offset="0"
         id="stop3172" />
      <stop
         style="stop-color:#00d63b;stop-opacity:0;"
         offset="1"
         id="stop3174" />
    </linearGradient>
    <linearGradient
       id="linearGradient3164">
      <stop
         id="stop3166"
         offset="0"
         style="stop-color:#ff0000;stop-opacity:1;" />
      <stop
         id="stop3168"
         offset="1"
         style="stop-color:#00d63b;stop-opacity:0;" />
    </linearGradient>
    <linearGradient
       id="linearGradient5422">
      <stop
         style="stop-color:#d30000;stop-opacity:1;"
         offset="0"
         id="stop5424" />
      <stop
         style="stop-color:#ff0000;stop-opacity:0;"
         offset="1"
         id="stop5426" />
    </linearGradient>
    <inkscape:perspective
       sodipodi:type="inkscape:persp3d"
       inkscape:vp_x="0 : 526.18109 : 1"
       inkscape:vp_y="6.1230318e-14 : 1000 : 0"
       inkscape:vp_z="744.09448 : 526.18109 : 1"
       inkscape:persp3d-origin="372.04724 : 350.78739 : 1"
       id="perspective10" />
    <linearGradient
       inkscape:collect="always"
       xlink:href="#linearGradient3253"
       id="linearGradient3454"
       gradientUnits="userSpaceOnUse"
       x1="-74.741104"
       y1="-86.035858"
       x2="91.101135"
       y2="-163.68266" />
    <linearGradient
       inkscape:collect="always"
       xlink:href="#linearGradient3267"
       id="linearGradient3456"
       gradientUnits="userSpaceOnUse"
       gradientTransform="matrix(4.9810849,0.3788437,-5.1235048,0.5090201,259.47826,252.87199)"
       x1="123.15675"
       y1="130.17917"
       x2="131.75237"
       y2="121.43824" />
    <linearGradient
       inkscape:collect="always"
       xlink:href="#linearGradient5801"
       id="linearGradient5807"
       x1="416.6875"
       y1="158.59375"
       x2="125.5"
       y2="586.71875"
       gradientUnits="userSpaceOnUse"
       gradientTransform="translate(-28.125,-473.4375)" />
    <radialGradient
       inkscape:collect="always"
       xlink:href="#linearGradient5838"
       id="radialGradient5854"
       cx="547.29559"
       cy="412.64087"
       fx="547.29559"
       fy="412.64087"
       r="208.64759"
       gradientTransform="matrix(1.7475794,0.1118931,-0.6926541,0.6699015,-166.66486,64.892956)"
       gradientUnits="userSpaceOnUse" />
    <linearGradient
       inkscape:collect="always"
       xlink:href="#linearGradient5846"
       id="linearGradient5858"
       x1="304.43979"
       y1="380.57843"
       x2="85.57383"
       y2="117.62309"
       gradientUnits="userSpaceOnUse"
       gradientTransform="matrix(0.9263877,0,0,0.9412355,-9.9025652,13.795502)" />
    <radialGradient
       inkscape:collect="always"
       xlink:href="#linearGradient5838"
       id="radialGradient5866"
       gradientUnits="userSpaceOnUse"
       gradientTransform="matrix(1.886445,0.1192587,-0.7476936,0.7139989,5.0424534,851.78419)"
       cx="547.29559"
       cy="412.64087"
       fx="547.29559"
       fy="412.64087"
       r="208.64759" />
  </defs>
  <sodipodi:namedview
     id="base"
     pagecolor="#ffffff"
     bordercolor="#666666"
     borderopacity="1.0"
     gridtolerance="10000"
     guidetolerance="10"
     objecttolerance="10"
     inkscape:pageopacity="0.0"
     inkscape:pageshadow="2"
     inkscape:zoom="0.45254834"
     inkscape:cx="-413.39143"
     inkscape:cy="231.60224"
     inkscape:document-units="px"
     inkscape:current-layer="layer1"
     showgrid="false"
     showguides="true"
     inkscape:showpageshadow="false"
     inkscape:window-width="1029"
     inkscape:window-height="676"
     inkscape:window-x="27"
     inkscape:window-y="35"
     showborder="true">
    <inkscape:grid
       type="xygrid"
       visible="true"
       enabled="true"
       id="grid2393" />
  </sodipodi:namedview>
  <metadata
     id="metadata7">
    <rdf:RDF>
      <cc:Work
         rdf:about="">
        <dc:format>image/svg+xml</dc:format>
        <dc:type
           rdf:resource="http://purl.org/dc/dcmitype/StillImage" />
      </cc:Work>
    </rdf:RDF>
  </metadata>
  <g
     inkscape:label="Layer 1"
     inkscape:groupmode="layer"
     id="layer1">
    <rect
       ry="90"
       rx="90"
       y="10.602222"
       x="11.58176"
       height="576.74463"
       width="577.10175"
       id="rect2390"
       style="opacity:1;fill:none;fill-opacity:1;stroke:none;stroke-width:1;stroke-linecap:round;stroke-linejoin:miter;stroke-miterlimit:4;stroke-dasharray:none;stroke-dashoffset:0;stroke-opacity:1" />
    <rect
       style="opacity:1;fill:none;fill-opacity:0;stroke:none;stroke-width:23.16965866000000000;stroke-linecap:round;stroke-linejoin:miter;stroke-miterlimit:4;stroke-dasharray:none;stroke-dashoffset:0;stroke-opacity:1"
       id="rect5264"
       width="577.10175"
       height="576.74463"
       x="11.581718"
       y="11.612374"
       rx="90"
       ry="90"
       inkscape:export-filename="D:\Documents and Settings\Маша\Рабочий стол\TELMA.V20\Projects\Interfaces\CurveEditor\CurveEditorPanel\images\Load.png"
       inkscape:export-xdpi="4.7978296"
       inkscape:export-ydpi="4.7978296" />
  </g>
  <g
     inkscape:groupmode="layer"
     id="layer3"
     inkscape:label="Белок">
    <path
       style="fill:#ffffff;fill-opacity:1;fill-rule:evenodd;stroke:#000000;stroke-width:8;stroke-linecap:butt;stroke-linejoin:miter;stroke-miterlimit:4;stroke-dasharray:none;stroke-opacity:1"
       d="M 192.23158,165.26703 L 192.23158,165.26703 L 109.32617,165.26703 C 109.32617,165.26703 102.1615,166.30695 98.067425,170.46666 C 93.973326,174.62638 93.973326,176.70624 91.926272,182.9458 C 89.879228,189.18537 88.855711,199.58465 88.855711,199.58465 L 88.855711,447.08757 L 475.74757,447.08757 L 475.74757,229.74257 L 235.21956,229.74257 L 234.55792,186.31792 L 230.10194,175.91864 C 230.10194,175.91864 228.59582,172.33815 223.23706,167.59921 C 219.21635,164.04355 192.23158,165.26703 192.23158,165.26703 z"
       id="path5860"
       sodipodi:nodetypes="cccsscccccccsc" />
  </g>
  <g
     inkscape:groupmode="layer"
     id="layer2"
     inkscape:label="Линия">
    <path
       style="fill:url(#linearGradient5858);fill-opacity:1;fill-rule:evenodd;stroke:#000000;stroke-width:8;stroke-linecap:butt;stroke-linejoin:miter;stroke-miterlimit:4;stroke-dasharray:none;stroke-opacity:1"
       d="M 191.73156,164.6454 L 191.73156,164.6454 L 108.82615,164.6454 C 108.82615,164.6454 101.66149,165.68533 97.567406,169.84504 C 93.473307,174.00475 93.473307,176.08462 91.426263,182.32418 C 89.379209,188.56375 88.355692,198.96303 88.355692,198.96303 L 88.355692,446.46592 L 475.24757,446.46592 L 475.24757,229.12095 L 234.71954,229.12095 L 234.0579,185.6963 L 229.60192,175.29702 C 229.60192,175.29702 228.0958,171.71653 222.73705,166.97759 C 218.71633,163.42193 191.73156,164.6454 191.73156,164.6454 z"
       id="path5833"
       sodipodi:nodetypes="cccsscccccccsc" />
    <rect
       style="opacity:1;fill:#ffffff;fill-opacity:1;stroke:#000000;stroke-width:8.453719;stroke-linecap:round;stroke-linejoin:bevel;stroke-miterlimit:4;stroke-dasharray:none;stroke-dashoffset:0;stroke-opacity:1"
       id="rect5869"
       width="385.71201"
       height="191.44344"
       x="310.37747"
       y="306.44058"
       transform="matrix(1,0,-0.4449836,0.8955387,0,0)" />
    <rect
       style="opacity:1;fill:url(#radialGradient5854);fill-opacity:1;stroke:#000000;stroke-width:8.453719;stroke-linecap:round;stroke-linejoin:bevel;stroke-miterlimit:4;stroke-dasharray:none;stroke-dashoffset:0;stroke-opacity:1"
       id="rect5836"
       width="385.71201"
       height="191.44344"
       x="311.10416"
       y="306.83865"
       transform="matrix(1,0,-0.4449836,0.8955387,0,0)" />
  </g>
  <g
     inkscape:groupmode="layer"
     id="layer10"
     inkscape:label="Белок2" />
  <g
     inkscape:groupmode="layer"
     id="layer9"
     inkscape:label="Внешняя" />
</svg>

<svg xmlns="http://www.w3.org/2000/svg" width="600" height="600"><defs><radialGradient id="A" cx="547.296" cy="412.641" fx="547.296" fy="412.641" r="208.648" gradientTransform="matrix(1.7475794,0.1118931,-0.6926541,0.6699015,-166.66486,64.892956)" gradientUnits="userSpaceOnUse"><stop offset="0" stop-color="#ffec69"/><stop offset="1" stop-color="#ffec69" stop-opacity="0"/></radialGradient><linearGradient id="B" x1="272.127" y1="372.009" x2="69.372" y2="124.507" gradientUnits="userSpaceOnUse"><stop offset="0" stop-color="#ffc35d"/><stop offset="1" stop-color="#ffc35d" stop-opacity="0"/></linearGradient></defs><g fill-rule="evenodd" stroke="#000" stroke-width="8"><path d="M192.232 165.267h0-82.905s-7.165 1.04-11.259 5.2-4.094 6.24-6.141 12.479-3.071 16.639-3.071 16.639v247.503h386.892V229.743H235.22l-.662-43.425-4.456-10.399s-1.506-3.58-6.865-8.319c-4.021-3.556-31.005-2.332-31.005-2.332z" fill="#fff"/><path d="M191.732 164.645h0-82.905s-7.165 1.04-11.259 5.2-4.094 6.24-6.141 12.479-3.071 16.639-3.071 16.639v247.503h386.892V229.121H234.72l-.662-43.425-4.456-10.399s-1.506-3.58-6.865-8.319c-4.021-3.556-31.005-2.332-31.005-2.332z" fill="url(#B)"/></g><g transform="matrix(1 0 -.444984 .895539 0 0)" stroke-width="8.454" stroke-linejoin="bevel"><path d="M310.377 306.441h385.712v191.443H310.377z" fill="#fff" stroke="#000"/><path d="M311.104 306.839h385.712v191.443H311.104z" fill="url(#A)" stroke="#000"/></g></svg>
